resources/haticons/SVG/bus_alert.svg

<!-- Generated by IcoMoon.io -->
<svg version="1.1" xmlns="http://www.w3.org/2000/svg" width="24" height="24" viewBox="0 0 24 24">
<title>bus_alert</title>
<path d="M15 9.984h2.016v2.016h-2.016v-2.016zM15 3.984h2.016v5.016h-2.016v-5.016zM15.984 12.984q2.063 0 3.539-1.453t1.477-3.516-1.477-3.539-3.539-1.477-3.516 1.477-1.453 3.539 1.453 3.516 3.516 1.453zM13.5 18.984q0.656 0 1.078-0.445t0.422-1.055-0.422-1.055-1.078-0.445-1.078 0.445-0.422 1.055 0.422 1.055 1.078 0.445zM3 12.984h8.109q-2.109-2.016-2.109-4.969h-6v4.969zM4.5 18.984q0.656 0 1.078-0.445t0.422-1.055-0.422-1.055-1.078-0.445-1.078 0.445-0.422 1.055 0.422 1.055 1.078 0.445zM15.984 0.984q2.906 0.047 4.945 2.109t2.039 4.922q0 2.484-1.734 4.5t-4.219 2.391v3.094q0 1.266-1.031 2.203v1.781q0 0.422-0.281 0.727t-0.703 0.305h-0.984q-0.422 0-0.727-0.305t-0.305-0.727v-0.984h-7.969v0.984q0 0.422-0.305 0.727t-0.727 0.305h-0.984q-0.422 0-0.703-0.305t-0.281-0.727v-1.781q-1.031-0.938-1.031-2.203v-9.984q0-2.391 2.063-3.211t5.953-0.82q0.188 0 0.609 0.023t0.609 0.023q0.891-1.266 2.555-2.156t3.211-0.891z"></path>
</svg>

<svg xmlns="http://www.w3.org/2000/svg" width="24" height="24"><path d="M15 9.984h2.016V12H15V9.984zm0-6h2.016V9H15V3.984zm.984 9q2.063 0 3.539-1.453T21 8.015t-1.477-3.539-3.539-1.477-3.516 1.477-1.453 3.539 1.453 3.516 3.516 1.453zm-2.484 6q.656 0 1.078-.445T15 17.484t-.422-1.055-1.078-.445-1.078.445T12 17.484t.422 1.055 1.078.445zm-10.5-6h8.109Q9 10.968 9 8.015H3v4.969zm1.5 6q.656 0 1.078-.445T6 17.484t-.422-1.055-1.078-.445-1.078.445T3 17.484t.422 1.055 1.078.445zm11.484-18q2.906.047 4.945 2.109t2.039 4.922q0 2.484-1.734 4.5t-4.219 2.391V18q0 1.266-1.031 2.203v1.781q0 .422-.281.727t-.703.305h-.984q-.422 0-.727-.305t-.305-.727V21H5.015v.984q0 .422-.305.727t-.727.305h-.984q-.422 0-.703-.305t-.281-.727v-1.781Q.984 19.265.984 18V8.016q0-2.391 2.063-3.211T9 3.985q.188 0 .609.023t.609.023q.891-1.266 2.555-2.156t3.211-.891z"/></svg>
